X: 20642
M: 2/4
L: 1/16
K: F
cB |\
|: cB |\
(Ac)(cf) (Bd)(df) | (Ac)(cf) (Bd)(df) | Acfa bagf | efgf edcB |\
(Ac)(cf) (Bd)(df) | (Ac)(cf) (Bd)(df) | AcAF GBGE | F2F2F2 :|


